X: 20841
M: 3/4
L: 1/8
K: C
[|\
E2G2c2 | f2z2e2 | f2z2e2 | (e4d2) |\
c2e2g2 | b2z2a2 | b2z2a2 | (a4g2) |\
E2G2c2 | fGf2e2 |
fGf2e2 | eFe2d2 |\
c2e2g2 | bcb2a2 | bcb2a2 | aca2g2 |\
e3d^cd | {e}d^cd[=c'=c][bB][aA] | a3g^fg | g4e2 |
e3d^cd | b3afd | d3cBc | a3gec |\
e3d^cd | {e}d^cd[=c'=c][bB][aA] | a3g^fg | g4e2 |\
ed^cdf[=c'=c] | bagfed | c2ecGE | C2z2ee :|


